X:1
T:Title
%%score { ( 1 3 ) | ( 2 4 ) }
L:1/8
M:4/4
K:Ab
V:1 treble nm="Grand Piano"
V:3 treble 
V:2 bass 
V:4 bass 
V:1
 z4 z2[Q:1/4=104] E2 | [CA]2 [CA]2 [CA]2 [CE]2 | [DF]4 [FA]2 [EG][DF] | [CE]2 [EA]2 [Ed]2 [Ec]2 | %4
 B6 E2 | B2 B2 B2 c2 | B4 G2 EE | z2 .G2 z4 | [G,E]6 z2 | [A,CA]2 [DA]2 [CA]2 [CE]2 | %10
 [EA][EA] B2 c2 A2 | B2 B2 B2 E2 | [GB][GB] [Ac]2 [Gd]2 [EB]2 | [Ec]4 [CA]2 z2 | [Ed]4 [EB]2 z2 | %15
 [Ee]2 [Fd]2 [Ec]2 [DB]2 |[M:3/4] [CA]6 |] %17
V:2
 z4 z2 E,2 | [A,,E,]2 [A,,A,]2 [A,,A,]2 [A,,A,]2 | [D,A,]4 [D,D]2 [D,A,][D,A,] | %3
 [A,,A,]2 [C,A,]2 [B,,G,]2 [A,,A,]2 | [E,G,E]6 [E,G,]2 | [E,G,E]2 [F,A,=D]2 [G,B,E]2 [A,E]2 | %6
 [G,B,E]4 [E,B,E]2 [C,C][C,C] | A,,2 G,,F,, B,,2 B,,2 | z4 D2 z2 | %9
 A,,2 [A,,F,]2 [A,,E,]2 [A,,A,]2 | [C,A,][C,A,] [E,G,E]2 [A,E]2 [A,CE]2 | %11
 [G,B,E]2 [F,A,=D]2 [E,G,E]2 [E,G,]2 | [E,D][E,D] [E,C]2 [E,B,]2 [E,G,]2 | [A,,A,]4 [A,,E,]2 z2 | %14
 [B,,G,]4 [D,G,]2 z2 | [C,A,]2 [D,A,]2 [E,A,]2 [E,G,]2 |[M:3/4] [A,,A,]6 |] %17
V:3
 x8 | x8 | x8 | x8 | x8 | x8 | x8 | [CEF]2 [CE]-[CEA] [B,EG]2 [A,=DF]2 | x8 | x8 | x8 | x8 | x8 | %13
 x8 | x8 | x8 |[M:3/4] x6 |] %17
V:4
 x8 | x8 | x8 | x8 | x8 | x8 | x8 | x8 | E,6 z2 | x8 | x8 | x8 | x8 | x8 | x8 | x8 |[M:3/4] x6 |] %17

